X:903
T:Christmas Carousin
S:Master Method, Highland Bagpipe
Z:Nigel Gatherer
M:4/4
L:1/8
K:A
e>A A2 B2 G>B | A2 f>e da | e>A A2 B2 G>B | A2 f>e d2 d2 :|
f>df<a f>df<a | e2 e>f da | f>df<a f>df<a | e2 e>f d2 d2 :|
T:Ray's Classic
C:Willie Hunter
S:Various
Z:Nigel Gatherer
M:2/4
L:1/8
K:A
A>B AE | FA E2 | FB BA/B/    | cB B2  |
A>B AE | FA E2 | FB A/G/F/E/ | A2 A2 :|
e>e eA | f2 f2 | Bf Bf       | g2 g2  |
cg  cg | a2 ag/f/ | ec BA/B/ | cA A2 :|
